X:002
U: ~ = !turn!
%%topmargin 3cm
T:Antrim Hills
B:Traditional Irish Fiddle Tunes. Randy Miller and Jack Perron.
Z:Transcribed by Ralph Palmer
C:contributed by Rod Miller
R:Reel
L:1/8
M:C
K:G
G4 (G3 A) | B2 A2 B2 d2 | G4 (G3 B) | d2 B2 A4 |
G4 (G3 A) | B2 A2 B2 d2 | B2 d2 de dc | B2 G2 G4 ::
B2 d2 d2 ef | g2 d2 e2 d2 | B2 d2 d2 df | g2 B2 A4 |
B2 d2 d2 ef | g2 d2 e2 d2 | B2 d2 de dc | PB2 G2 G4 :|]
